public/images/icons/comment-account-outline.svg

<svg xmlns="http://www.w3.org/2000/svg" fill="currentColor" viewBox="0 0 24 24"><path d="M9 22a1 1 0 0 1-1-1v-3H4a2 2 0 0 1-2-2V4a2 2 0 0 1 2-2h16a2 2 0 0 1 2 2v12a2 2 0 0 1-2 2h-6.1l-3.7 3.71c-.2.19-.45.29-.7.29H9m1-6v3.08L13.08 16H20V4H4v12h6m6-2H8v-1c0-1.33 2.67-2 4-2s4 .67 4 2v1m-4-8a2 2 0 0 1 2 2 2 2 0 0 1-2 2 2 2 0 0 1-2-2 2 2 0 0 1 2-2Z"/></svg>

<svg xmlns="http://www.w3.org/2000/svg" viewBox="0 0 24 24" fill="currentColor"><path d="M9,22A1,1 0 0,1 8,21V18H4A2,2 0 0,1 2,16V4C2,2.89 2.9,2 4,2H20A2,2 0 0,1 22,4V16A2,2 0 0,1 20,18H13.9L10.2,21.71C10,21.9 9.75,22 9.5,22V22H9M10,16V19.08L13.08,16H20V4H4V16H10M16,14H8V13C8,11.67 10.67,11 12,11C13.33,11 16,11.67 16,13V14M12,6A2,2 0 0,1 14,8A2,2 0 0,1 12,10A2,2 0 0,1 10,8A2,2 0 0,1 12,6Z" /></svg>
